X:0707
T:Surrender of Calias.
M:C|
L:1/8
Q:1/2=104
I: :: :|
Z:Jack Campin * www.campin.me.uk * 2009
K:G
g2  dc BdBG|g2  fg (ag/f/) gd|g2  dc Bd`BG|ABcB B2A2:|
Ac Tc2 Bdgd|Ac Tc2  Bd`````BG|eg Tg2 dgTg2|dcBA G2G2:|
<end>
<start>
